X:16819
T:The Harvey Jig
R:jig
M:6/8
L:1/8
K:D
A|ABA F2A|dcd f2a|e2f gfe|cde dcB|
ABA F2A|dcd f2a|e2f gec|d3 d2:|
|:(3e/f/g/|aba faf|dcB A2G|FDF AGF|E3 E2e|
gag efe|dcB A2 (3e/f/g/|aba gfe|d3 d2:|
